src/assets/icons/media-reading-writing,simple,game.svg

<svg width="48" height="48" viewBox="0 0 48 48" fill="none" xmlns="http://www.w3.org/2000/svg">
<rect opacity="0.2" x="5" y="5" width="38" height="38" rx="4" fill="black"/>
<path d="M18 11C18 9.34315 19.3431 8 21 8H27C28.6569 8 30 9.34315 30 11V15.1048C30 16.1326 29.6044 17.1209 28.8953 17.8648L26.8953 19.9628C25.3192 21.6162 22.6808 21.6162 21.1047 19.9628L19.1047 17.8648C18.3956 17.1209 18 16.1326 18 15.1048V11Z" fill="black"/>
<path d="M30 37C30 38.6569 28.6569 40 27 40H21C19.3431 40 18 38.6569 18 37V32.8952C18 31.8674 18.3956 30.8791 19.1047 30.1352L21.1047 28.0372C22.6808 26.3838 25.3192 26.3838 26.8953 28.0372L28.8953 30.1352C29.6044 30.8791 30 31.8674 30 32.8952V37Z" fill="black"/>
<path d="M37 18C38.6569 18 40 19.3431 40 21L40 27C40 28.6569 38.6569 30 37 30L32.8952 30C31.8674 30 30.8791 29.6044 30.1352 28.8953L28.0372 26.8953C26.3838 25.3192 26.3838 22.6808 28.0372 21.1047L30.1352 19.1047C30.8791 18.3956 31.8674 18 32.8952 18L37 18Z" fill="black"/>
<path d="M11 30C9.34315 30 8 28.6569 8 27L8 21C8 19.3431 9.34315 18 11 18L15.1048 18C16.1326 18 17.1209 18.3956 17.8648 19.1047L19.9628 21.1047C21.6162 22.6808 21.6162 25.3192 19.9628 26.8953L17.8648 28.8953C17.1209 29.6044 16.1326 30 15.1048 30L11 30Z" fill="black"/>
</svg>

<svg xmlns="http://www.w3.org/2000/svg" width="48" height="48" fill="none" viewBox="0 0 48 48">
  <rect width="38" height="38" x="5" y="5" fill="#000" opacity=".2" rx="4"/>
  <path fill="#000" d="M18 11a3 3 0 013-3h6a3 3 0 013 3v4.105a4 4 0 01-1.105 2.76l-2 2.098a4 4 0 01-5.79 0l-2-2.098A4 4 0 0118 15.105V11zM30 37a3 3 0 01-3 3h-6a3 3 0 01-3-3v-4.105a4 4 0 011.105-2.76l2-2.098a4 4 0 015.79 0l2 2.098A4 4 0 0130 32.895V37zM37 18a3 3 0 013 3v6a3 3 0 01-3 3h-4.105a4 4 0 01-2.76-1.105l-2.098-2a4 4 0 010-5.79l2.098-2A4 4 0 0132.895 18H37zM11 30a3 3 0 01-3-3v-6a3 3 0 013-3h4.105a4 4 0 012.76 1.105l2.098 2a4 4 0 010 5.79l-2.098 2A4 4 0 0115.105 30H11z"/>
</svg>
